!!!COM: Palestrina, Giovanni Perluigi da
!!!OPR: Missa L'homme arme (1570)
!!!OTL: Kyrie
**kern	**kern	**kern	**kern	**kern
*Ibass	*Itenor	*Itenor	*Icalto	*Icant
!Bassus	!Tenor 2	!Tenor 1	!Altus	!Cantus
*clefF4	*clefGv2	*clefGv2	*clefG2	*clefG2
*k[]	*k[]	*k[]	*k[]	*k[]
*G:mix	*G:mix	*G:mix	*G:mix	*G:mix
*M4/2	*M4/2	*M4/2	*M4/2	*M4/2
=1	=1	=1	=1	=1
0r	0r	0r	0d	0r
=2	=2	=2	=2	=2
0r	1r	0r	1d	0r
.	[1G	.	1g	.
=3	=3	=3	=3	=3
0r	1G]	0r	2g	0r
.	.	.	2f	.
.	1G	.	2e	.
.	.	.	2d	.
=4	=4	=4	=4	=4
0r	1c	0r	1.e	0g
.	2c	.	.	.
.	4B	.	4d	.
.	4A	.	4c	.
=5	=5	=5	=5	=5
0r	2B	0r	2d	1g
.	2.c	.	2.e	.
.	.	.	.	1cc
.	4d	.	4f	.
.	2e	.	2g	.
=6	=6	=6	=6	=6
0r	2f	0r	2a	2cc
.	2g	.	1g	2b
.	1d	.	.	1a
.	.	.	2f#	.
=7	=7	=7	=7	=7
0G	2r	0r	0g	1b
.	2d	.	.	.
.	2d	.	.	2r
.	[2g	.	.	2dd
=8	=8	=8	=8	=8
1G	4g]	0r	2r	2dd
.	4f	.	.	.
.	4e	.	2g	2.gg
.	4d	.	.	.
1c	1e	.	2g	.
.	.	.	.	4ff
.	.	.	4cc	4ee
.	.	.	4b	4dd
=9	=9	=9	=9	=9
2c	2c	0r	4a	2ee
.	.	.	4g	.
2B	2d	.	1g	2dd
1A	2e	.	.	1cc
.	2c	.	2f#	.
=10	=10	=10	=10	=10
1G	1d	[0G	[0g	2b
.	.	.	.	2g
1r	2r	.	.	2.b
.	2G	.	.	.
.	.	.	.	4cc
=11	=11	=11	=11	=11
0r	2.B	1G_	1g]	2dd
.	.	.	.	2ee
.	4c	.	.	.
.	2d	1G_	2r	2dd
.	2e	.	2G	[2gg
=12	=12	=12	=12	=12
0r	2d	0G]	2.B	4gg]
.	.	.	.	4ff
.	2.g	.	.	2ee
.	.	.	4c	.
.	.	.	2d	2dd
.	4f	.	.	.
.	2e	.	2G	[2gg
=13	=13	=13	=13	=13
0r	2d	[0G	2.B	4gg]
.	.	.	.	4ff
.	2.g	.	.	2ee
.	.	.	4c	.
.	.	.	2d	2dd
.	4f	.	.	.
.	2e	.	[2g	[2cc
=14	=14	=14	=14	=14
1r	1d	1G]	4g]	2cc]
.	.	.	4f	.
.	.	.	2d	2b
[1C	2.c	[1c	2.e	[1cc
.	4d	.	4f	.
=15	=15	=15	=15	=15
1C]	0e	0c_	1g	2cc]
.	.	.	.	4b
.	.	.	.	4a
1C	.	.	2r	1g
.	.	.	2e	.
=16	=16	=16	=16	=16
1F	2.A	0c_	2f	1a
.	.	.	1a	.
.	4B	.	.	.
2F	4c	.	.	1r
.	4d	.	.	.
4E	4e	.	4g	.
4D	4f	.	4f	.
=17	=17	=17	=17	=17
2E	2g	1c]	2e	1r
4F	1f	.	1a	.
4G	.	.	.	.
4A	.	[1c	.	2r
4B	.	.	.	.
2c	2e	.	2g	2cc
=18	=18	=18	=18	=18
1F	1a	0c]	1f	2cc
.	.	.	.	1ff
1C	2g	.	[1g	.
.	2c	.	.	2ee
=19	=19	=19	=19	=19
[0G	0d	[0B	1g]	2dd
.	.	.	.	2.g
.	.	.	2r	.
.	.	.	.	4a
.	.	.	[2g	4b
.	.	.	.	4cc
=20	=20	=20	=20	=20
1G]	2r	1B]	2g]	2.dd
.	1d	.	2g	.
.	.	.	.	4ee
1r	.	[1A	2.a	2ff
.	2c#	.	.	2ee
.	.	.	4g	.
=21	=21	=21	=21	=21
1.D	2d	0A_	4f	2.dd
.	.	.	4e	.
.	1f	.	1d	.
.	.	.	.	8cc
.	.	.	.	8b
.	.	.	.	1a
2C#	2e	.	2e	.
=22	=22	=22	=22	=22
2D	2d	0A_	2f	1a
2.F	2c	.	1a	.
.	2f	.	.	1r
4E	.	.	.	.
2C	2e	.	[2g	.
=23	=23	=23	=23	=23
1D	1d	1A]	2g]	2r
.	.	.	2f#	1dd
1G	2B	[1G	[1g	.
.	2d	.	.	2b
=24	=24	=24	=24	=24
0C	2e	0G_	0g]	2cc
.	2c	.	.	2.ee
.	1e	.	.	.
.	.	.	.	4dd
.	.	.	.	[2cc
=25	=25	=25	=25	=25
[0G	[0d	0G_	[0g	2cc]
.	.	.	.	4b
.	.	.	.	4a
.	.	.	.	[1b
=26	=26	=26	=26	=26
0G]	0d]	1G]	0g]	0b]
.	.	1G	.	.
=27	=27	=27	=27	=27
1G	0r	0r	0r	0r
1G	.	.	.	.
=28	=28	=28	=28	=28
1C	1r	0r	0r	0r
[1G	1d	.	.	.
=29	=29	=29	=29	=29
2G]	1d	0r	0r	0r
2F	.	.	.	.
1E	1G	.	.	.
=30	=30	=30	=30	=30
2.D	1.d	0r	0r	0r
4E	.	.	.	.
4F	.	.	.	.
4G	.	.	.	.
[2A	2c	.	.	.
=31	=31	=31	=31	=31
4A]	1B	0r	0r	0r
4G	.	.	.	.
1G	.	.	.	.
.	1A	.	.	.
2F#	.	.	.	.
=32	=32	=32	=32	=32
2.G	4G	0r	1g	0r
.	4A	.	.	.
.	4B	.	.	.
4A	4c	.	.	.
2B	2d	.	1g	.
2c	[2e	.	.	.
=33	=33	=33	=33	=33
1A	2e]	0r	1c	1r
.	4d	.	.	.
.	4c	.	.	.
1G	2B	.	[1g	1dd
.	4G	.	.	.
.	4A	.	.	.
=34	=34	=34	=34	=34
0r	4B	0r	2g]	1dd
.	4c	.	.	.
.	2.d	.	2f	.
.	.	.	1e	1g
.	4c	.	.	.
.	[2c	.	.	.
=35	=35	=35	=35	=35
0r	2c]	0r	2.d	1.dd
.	2B	.	.	.
.	.	.	4e	.
.	2A	.	4f	.
.	.	.	4g	.
.	2F	.	[2a	2cc
=36	=36	=36	=36	=36
0r	1G	[0d	4a]	1b
.	.	.	4g	.
.	.	.	1g	.
.	2r	.	.	1a
.	2d	.	2f#	.
=37	=37	=37	=37	=37
1G	2B	1d_	1g	2g
.	2G	.	.	2.b
1G	1B	1d_	1r	.
.	.	.	.	4a
.	.	.	.	[2g
=38	=38	=38	=38	=38
1D	1A	0d]	2r	2g]
.	.	.	2d	2f#
[1G	2G	.	2B	[1g
.	[2B	.	4G	.
.	.	.	4A	.
=39	=39	=39	=39	=39
2G]	2B]	[0d	4B	1g]
.	.	.	4c	.
4F	4A	.	4d	.
4E	4G	.	4e	.
[1D	2A	.	2f#	1r
.	2B	.	[2g	.
=40	=40	=40	=40	=40
1D]	1A	1d]	2g]	1dd
.	.	.	2f#	.
1r	2r	[1G	[1g	2b
.	2d	.	.	4g
.	.	.	.	4a
=41	=41	=41	=41	=41
1G	2B	0G_	1g_	4b
.	.	.	.	4cc
.	4G	.	.	4dd
.	4A	.	.	4b
2E	4B	.	1g_	1ee
.	4G	.	.	.
4C	2c	.	.	.
4D	.	.	.	.
=42	=42	=42	=42	=42
4E	2.B	0G_	1g]	2ee
4F	.	.	.	.
4G	.	.	.	1dd
4A	4c	.	.	.
2B	2d	.	1r	.
[2c	2e	.	.	2cc
=43	=43	=43	=43	=43
2c]	1d	1G]	2r	1dd
2B	.	.	2g	.
1c	[1c	1r	2e	2.gg
.	.	.	4c	.
.	.	.	4d	4ff
=44	=44	=44	=44	=44
0r	1c]	0r	4e	4ee
.	.	.	4f	4dd
.	.	.	4g	2ee
.	.	.	4e	.
.	1r	.	2a	2cc
.	.	.	[2g	2b
=45	=45	=45	=45	=45
1r	1r	[0d	2g]	1a
.	.	.	2f#	.
1G	2r	.	1g	1b
.	2B	.	.	.
=46	=46	=46	=46	=46
2F#	2A	1d]	2r	2r
2G	2G	.	2g	2b
2D	2A	[1d	2f#	2a
[2G	[2B	.	2g	2g
=47	=47	=47	=47	=47
2G]	2B]	0d]	2d	2.b
4F	4A	.	1g	.
4E	4G	.	.	4cc
1D	1A	.	.	2.dd
.	.	.	2f#	.
.	.	.	.	4cc
=48	=48	=48	=48	=48
2r	1G	[0d	1g	4b
.	.	.	.	4a
2G	.	.	.	2b
2F#	2A	.	2r	2a
2G	2B	.	2g	4d
.	.	.	.	4e
=49	=49	=49	=49	=49
4D	1A	1d]	2a	4f
4E	.	.	.	4g
4F	.	.	2f	4a
4G	.	.	.	4b
2A	2r	[1c	2e	2.cc
2F	2a	.	2f	.
.	.	.	.	4dd
=50	=50	=50	=50	=50
2E	2g	0c]	2g	2ee
2F	2f	.	2a	4cc
.	.	.	.	4dd
4C	1e	.	2g	4ee
4D	.	.	.	4ff
4E	.	.	4G	2gg
4F	.	.	4A	.
=51	=51	=51	=51	=51
[0G	2d	[0B	4B	4g
.	.	.	4c	4a
.	4G	.	2d	4b
.	4A	.	.	4cc
.	4B	.	4G	2dd
.	4c	.	4A	.
.	2d	.	4B	4g
.	.	.	4c	4a
=52	=52	=52	=52	=52
1G]	4G	1B]	2.d	4b
.	4A	.	.	4cc
.	4B	.	.	1dd
.	4c	.	4e	.
[1D	[1d	[1A	4f#	.
.	.	.	4g	.
.	.	.	2a	4cc
.	.	.	.	4b
=53	=53	=53	=53	=53
0D]	2d]	0A]	2f#	2a
.	2d	.	1g	2.dd
.	1d	.	.	.
.	.	.	.	4cc
.	.	.	2f#	2a
=54	=54	=54	=54	=54
0G	0d	0G	0g	0b
=55	=55	=55	=55	=55
0r	1g	0r	0r	0r
.	2g	.	.	.
.	[2f	.	.	.
=56	=56	=56	=56	=56
0r	2f]	0r	0r	1r
.	2f	.	.	.
.	1g	.	.	1dd
=57	=57	=57	=57	=57
0r	2d	0r	1r	2dd
.	2f	.	.	1cc
.	2.e	.	1g	.
.	.	.	.	2cc
.	8d	.	.	.
.	8c	.	.	.
=58	=58	=58	=58	=58
0r	2B	0r	2g	1dd
.	2.d	.	1f	.
.	.	.	.	2a
.	8c	.	.	.
.	8B	.	.	.
.	2A	.	2f	[2cc
=59	=59	=59	=59	=59
1G	2.G	0r	1g	2cc]
.	.	.	.	1b
.	4A	.	.	.
2G	4B	.	2d	.
.	4c	.	.	.
[2F	[2d	.	[2f	4a
.	.	.	.	4g
=60	=60	=60	=60	=60
2F]	4d]	0r	2f]	1a
.	4c	.	.	.
2F	1c	.	2f	.
1G	.	.	2e	4g
.	.	.	.	4a
.	2B	.	[2d	4b
.	.	.	.	4cc
=61	=61	=61	=61	=61
2D	2A	1r	4d]	1dd
.	.	.	8c	.
.	.	.	8B	.
2F	1d	.	2A	.
1E	.	[3g	1G	1ee
.	.	3g]	.	.
.	2c#	.	.	.
.	.	3g	.	.
=62	=62	=62	=62	=62
1D	1d	[3f	2r	2a
.	.	3f]	.	.
.	.	.	2d	2dd
.	.	3f	.	.
1r	1r	[3g	2e	2cc
.	.	3g]	.	.
.	.	.	[2g	2b
.	.	3g	.	.
=63	=63	=63	=63	=63
2r	0r	1d	2g]	1a
2d	.	.	2f	.
2c	.	[3g	2e	2r
.	.	3g]	.	.
2B	.	.	2d	2g
.	.	3g	.	.
=64	=64	=64	=64	=64
1A	1r	[3f	1c	2a
.	.	3f]	.	.
.	.	.	.	1cc
.	.	3f	.	.
1G	2r	[3g	1d	.
.	.	3g]	.	.
.	[2g	.	.	2b
.	.	3g	.	.
=65	=65	=65	=65	=65
0r	2g]	1d	2r	2.a
.	2f	.	2d	.
.	.	.	.	4b
.	1e	[3g	2e	2cc
.	.	3g]	.	.
.	.	.	2g	4b
.	.	3g	.	.
.	.	.	.	4cc
=66	=66	=66	=66	=66
0r	2d	[3a	2f	4dd
.	.	.	.	4a
.	.	3a]	.	.
.	2B-	.	2d	1dd
.	.	3g	.	.
.	1A	3f	2.a	.
.	.	[3e	.	.
.	.	.	.	2cc#
.	.	3e]	.	.
.	.	.	4g	.
=67	=67	=67	=67	=67
1D	2r	1d	4f#	1dd
.	.	.	4e	.
.	2d	.	2f#	.
2E	2c	1r	1g	1r
2G	2B	.	.	.
=68	=68	=68	=68	=68
2F	2A	0r	2r	1cc
2E	1c	.	2g	.
1D	.	.	2f	2dd
.	2B	.	2d	2ff
=69	=69	=69	=69	=69
4C	2c	[3c	1g	1ee
4D	.	.	.	.
.	.	3c]	.	.
4E	2G	.	.	.
.	.	3c	.	.
4F	.	.	.	.
1G	2r	[3B	1g	1dd
.	.	3B]	.	.
.	2d	.	.	.
.	.	3B	.	.
=70	=70	=70	=70	=70
1C	2e	[3c	2r	1cc
.	.	3c]	.	.
.	2c	.	1cc	.
.	.	3c	.	.
1r	2d	1G	.	2r
.	[2g	.	2b	2dd
=71	=71	=71	=71	=71
1C	4g]	[3c	2cc	2ee
.	4f	.	.	.
.	.	3c]	.	.
.	2e	.	2g	2cc
.	.	3c	.	.
1G	2d	[3B	1g	2dd
.	.	3B]	.	.
.	2d	.	.	[2gg
.	.	3B	.	.
=72	=72	=72	=72	=72
2C	2e	[3c	1g	4gg]
.	.	.	.	4ff
.	.	3c]	.	.
1c	2c	.	.	1ee
.	.	3c	.	.
.	2.d	1G	2r	.
2B	.	.	2g	[2dd
.	8c	.	.	.
.	8d	.	.	.
=73	=73	=73	=73	=73
1A	2e	[3c	2a	4dd]
.	.	.	.	4cc
.	.	3c]	.	.
.	2A	.	2f	2cc
.	.	3c	.	.
2G	1r	[3d	4g	2b
.	.	.	4d	.
.	.	3d]	.	.
2E	.	.	[2g	2g
.	.	3c	.	.
=74	=74	=74	=74	=74
1D	2r	3B-	2g]	0dd
.	.	[3A	.	.
.	1d	.	2f	.
.	.	3A]	.	.
2r	.	1G	1b-	.
2G	2g	.	.	.
=75	=75	=75	=75	=75
2A	2e	[3c	1a	1r
.	.	3c]	.	.
2F	2f	.	.	.
.	.	3c	.	.
1G	1d	[3B	2.g	2r
.	.	3B]	.	.
.	.	.	.	2dd
.	.	3B	.	.
.	.	.	4f	.
=76	=76	=76	=76	=76
1C	0g	[3c	4e	2ee
.	.	.	4c	.
.	.	3c]	.	.
.	.	.	2.cc	2cc
.	.	3c	.	.
2r	.	1G	.	2.dd
.	.	.	8b	.
.	.	.	8a	.
2G	.	.	2b	.
.	.	.	.	8cc
.	.	.	.	8b
=77	=77	=77	=77	=77
2F	2r	[3c	2cc	2a
.	.	3c]	.	.
2E	2c	.	2g	2g
.	.	3c	.	.
1D	2d	[3B	2r	1dd
.	.	3B]	.	.
.	2f	.	2d	.
.	.	3B	.	.
=78	=78	=78	=78	=78
1C	1e	[3c	2g	2ee
.	.	3c]	.	.
.	.	.	4G	2cc
.	.	3c	.	.
.	.	.	4A	.
2r	2d	1G	4B	2.dd
.	.	.	4c	.
2G	2G	.	4d	.
.	.	.	4e	8cc
.	.	.	.	8b
=79	=79	=79	=79	=79
2F	2A	[3c	2f	2a
.	.	3c]	.	.
2E	2c	.	1g	2g
.	.	3c	.	.
[1D	2B	[3d	.	[1dd
.	.	3d]	.	.
.	2A	.	4f	.
.	.	3c	.	.
.	.	.	4e	.
=80	=80	=80	=80	=80
1D]	1d	3B-	1f#	1dd]
.	.	[3A	.	.
.	.	3A]	.	.
[1G	[1d	[1G	[1g	[1b
=81	=81	=81	=81	=81
0G]	0d]	0G]	0g]	0b]
==	==	==	==	==
*-	*-	*-	*-	*-
!!!CDT: 1525/^1526/-1594/2/2
!!!OCY: Italia
!!!AGN: Mass (Tenor)
!!!AST: renaissance, vocal
!!!ASW: Popular Song
!!!PWK: Masses, Book 3
!!!RNB: Cadence finals: C,D
!!!YOR: Le Opere Complete, v. 6, p. 97
!!!YOO: Rome, Italy: Fratelli Scalera
!!!END: 1992//
!!!EED: John Miller
!!!YEC: Copyright 2000, John Miller
!!!YEN: United States of America
!!!YEM: Rights to all derivative electronic formats reserved.
!!!YEM: Refer to licensing agreement for further details.
!!!YEM: This file must be accompanied by the licensing agreement.
!!!YEM: A copy of the licensing agreement may be found at http://www.music-cog.ohio-state.edu/HumdrumDatabases/Palestrina/license.txt
!!!EMD: converted to Humdrum by Bret Aarden
